X: 49
T:Major,Ye. JBa.48
T:Moincoin Jig,aka. JBa.48
M:6/8
L:1/8
Q:120
C:Moincoin Jig,aka
S:Joseph Barnes MS,Carlisle,1762.
R:Jig
O:England
A:Carlisle
N:This is the first half of each line of the Moincoin Jig(Not necessarily
N:implying that it was the Mooncoin Jig first,of course) Or just what a
N:working musician uses to remind  him/her of how the tune goes.(On this
N:basis I have added a complete set of repeat marks to stop it playing
N:right through..CGP) Key
N:signature given as 3 sharps, but two of them are F's.  I think the
N:squiggle over the F in the 3rd bar  is the shake sign.  I'm not sure.
N:"1"  Bar line added..CGr....CGP
H:See Paul's Notes..
Z:vmp.C.Graebe.
K:D Major
"See note"c2A AcA "1" | AcA Bcd | c2A AcA  "1" | dBG Bcd :|!
|:"2nd" cde efg | ("sh"f2e) fga | cde e(fg)  "1" | f2d (Bc)d :|!
|:"3rd" c(BA) g3 | (ec)A Bcd | cBA g3 | dBG Bcd :|!
|:"4th" e2Ac2A | e2A Bcd | e2Ac2A | dBG Bc"End"d :|]
